img/subtract-2.svg

<svg fill="none" height="36" viewBox="0 0 36 36" width="36" xmlns="http://www.w3.org/2000/svg"><path clip-rule="evenodd" d="m13.814.729577c-.3451-.092469-.7133.006192-.9659.258819l-11.98053 11.980504c-.252625.2526-.351286.6208-.258819.9659l4.385159 16.3657c.09247.3451.36202.6146.70711.7071l16.36568 4.3851c.3451.0925.7133-.0062.9659-.2588l11.9805-11.9805c.2526-.2526.3513-.6208.2588-.9659l-4.3851-16.36565c-.0925-.34509-.3621-.61464-.7072-.70711zm14.4504 14.624223c-1.5723-5.86811-7.604-9.35052-13.4722-7.77816-5.86809 1.57236-9.3505 7.60406-7.77814 13.47216 1.57236 5.8682 7.60404 9.3506 13.47224 7.7782 5.8681-1.5723 9.3505-7.6041 7.7781-13.4722z" fill="#fff500" fill-rule="evenodd"/></svg>

<svg width="36" height="36" viewBox="0 0 36 36" fill="none" xmlns="http://www.w3.org/2000/svg">
<path fill-rule="evenodd" clip-rule="evenodd" d="M13.814 0.729577C13.4689 0.637108 13.1007 0.735769 12.8481 0.988396L0.86757 12.9689C0.614945 13.2215 0.516284 13.5897 0.608751 13.9348L4.99391 30.3005C5.08638 30.6456 5.35593 30.9151 5.70102 31.0076L22.0667 35.3927C22.4118 35.4852 22.78 35.3865 23.0326 35.1339L35.0131 23.1534C35.2657 22.9008 35.3644 22.5326 35.2719 22.1875L30.8868 5.82185C30.7943 5.47676 30.5247 5.20721 30.1796 5.11474L13.814 0.729577ZM28.2644 15.3538C26.6921 9.48569 20.6604 6.00328 14.7922 7.57564C8.92411 9.148 5.4417 15.1797 7.01406 21.0478C8.58642 26.916 14.6181 30.3984 20.4863 28.826C26.3544 27.2537 29.8368 21.2219 28.2644 15.3538Z" fill="#FFF500"/>
</svg>
